static/images/mobile/copyright/wikipedia-wordmark-ak.svg

<?xml version="1.0" encoding="UTF-8"?>
<svg width="120px" height="20px" viewBox="0 0 120 20" version="1.1" xmlns="http://www.w3.org/2000/svg" xmlns:xlink="http://www.w3.org/1999/xlink">
    <title>wikipedia-wordmark-ak</title>
    <g id="Page-1" stroke="none" stroke-width="1" fill="none" fill-rule="evenodd">
        <path d="M34.4053904,6.01998499 L34.4327102,6.07757719 L34.4327102,6.71109142 C34.4327102,6.79747973 34.3780696,6.85507193 34.2687861,6.85507193 L33.6950471,6.91377167 C32.8480995,6.99905244 32.5475701,7.23052879 32.5475701,7.80755836 L32.5475701,17.3966601 C32.5475701,18.0301744 32.8207786,18.4045237 33.6950471,18.490912 L34.2687861,18.5496117 C34.3507487,18.5496117 34.4327102,18.6060964 34.4327102,18.7212808 L34.4327102,19.3259989 L34.4053904,19.3846987 C34.4053904,19.3846987 32.3290021,19.3259989 31.4820556,19.3259989 C30.7170694,19.3259989 28.5860416,19.3846987 28.5860416,19.3846987 L28.5313988,19.3259989 L28.5313988,18.7212808 C28.5313988,18.6060964 28.6133614,18.5496117 28.7226448,18.5496117 L29.269063,18.490912 C30.1706523,18.4045237 30.443862,17.9437861 30.443862,17.3966601 L30.443862,7.80755836 C30.443862,7.17515167 30.1149596,7.00015998 29.269063,6.91598676 L28.7226448,6.85617947 C28.6133614,6.85617947 28.5313988,6.82959845 28.5313988,6.74099507 L28.5313988,6.07757719 L28.5587197,6.01998499 C28.5587197,6.01998499 30.5334669,6.07267804 31.4463947,6.07726005 L31.5640182,6.07757719 C32.3016824,6.07757719 34.4053904,6.01998499 34.4053904,6.01998499 Z M20.1112134,0.000907285962 C20.1802992,0.00100208751 20.2484707,0.00110209386 20.3155428,0.00120618968 L20.7033007,0.00187091585 C20.7652345,0.00198690834 20.8256985,0.00210475968 20.8845077,0.00222335456 L21.2160231,0.00293492386 C21.2674722,0.00305203165 21.3168962,0.00316765237 21.3641099,0.00328067069 L21.6193875,0.00391862937 C21.6570195,0.00401677686 21.6920709,0.00411009133 21.7243566,0.00419745746 L21.9780707,0.0049224105 L22.0412006,0.0636221558 L22.0412006,0.612963168 C22.0412006,0.764696472 21.9559198,0.840009353 21.7875734,0.840009353 C20.9613468,0.878773335 20.7918928,0.96073147 20.4895337,1.39599562 C20.3245099,1.63411723 19.9988925,2.14469426 19.661092,2.71729366 L16.7615461,8.13982107 C16.7615461,8.13982107 16.7331516,8.19913864 16.6804302,8.30906089 L20.2237236,15.5603549 L20.4385868,15.6190547 L26.0206003,2.37174044 C26.2144202,1.83790502 26.1845166,1.45912553 25.9353195,1.23650952 C25.685015,1.01943122 25.5089157,0.890956301 24.862111,0.864375285 L24.3382434,0.837794268 C24.274006,0.837794268 24.2130912,0.814535878 24.1543914,0.771341726 C24.0967992,0.730362659 24.0668956,0.676093083 24.0668956,0.610748083 L24.0668956,0.0591919863 L24.1466386,0.00270732578 L30.4529848,0.00270732578 L30.5172223,0.0591919863 L30.5172223,0.610748083 C30.5172223,0.760266302 30.4319415,0.835579183 30.2635951,0.835579183 C29.4373685,0.872128081 28.8248976,1.05154994 28.4283974,1.37162969 C28.0307897,1.69392451 27.7206778,2.138049 27.4980618,2.71507857 C27.4980618,2.71507857 25.9707517,6.21092163 24.2972261,10.0227113 L24.0171881,10.6603898 L23.7358633,11.3006476 C22.5160535,14.0759613 21.3000198,16.83178 20.6080408,18.3701899 C19.9357625,19.6505089 19.2745598,19.5331094 18.6931,18.333641 C18.2064292,17.331336 17.369566,15.521363 16.5364264,13.701118 L16.2987936,13.1814573 C15.9664616,12.4540602 15.6401416,11.7372112 15.3426165,11.0822415 C14.9697274,11.8519475 14.55339,12.7074194 14.1327746,13.5652673 L13.8820806,14.0757774 C13.8403157,14.1606914 13.7985849,14.2454654 13.7569264,14.3300178 L13.5081474,14.8340186 C12.8074596,16.2507815 12.1496987,17.5562693 11.7222284,18.3491466 C10.9380884,19.7125312 10.2923912,19.5342169 9.77849153,18.3845879 C7.99424078,14.1748194 4.33049064,6.78308168 2.60604718,2.64087324 C2.28707498,1.87777655 2.04673829,1.38824282 1.8196921,1.19442291 C1.59153838,1.00281808 1.11751024,0.887633674 0.396500166,0.848869691 C0.131797541,0.82007359 0,0.755836133 0,0.651727151 L0,0.0746975794 L0.0642374571,0.0182129189 C0.159426233,0.0176741145 0.284249251,0.0172226838 0.433275173,0.0168480002 L0.761988271,0.0161978141 C0.821615783,0.0161054551 0.883530184,0.0160208364 0.947530316,0.0159435645 L4.3099601,0.0159380544 C4.39293318,0.0159893504 4.47517574,0.0160424831 4.55648661,0.0160970588 L5.68112873,0.0169747314 C5.74809379,0.0170338989 5.81312137,0.0170925416 5.87601031,0.0171502659 L6.63380101,0.0178980587 C6.6702745,0.0179367603 6.70360354,0.0179725756 6.73358697,0.0180051112 L6.91992469,0.0182129189 L6.98416214,0.0746975794 L6.98416214,0.624038592 C6.98416214,0.775771895 6.88780596,0.848869691 6.69841621,0.848869691 L5.98294385,0.878773335 C5.36936538,0.90424681 5.06257614,1.08809884 5.06257614,1.42811435 C5.06257614,1.58649291 5.1268136,1.84344273 5.26968657,2.19010349 C5.74248006,3.34196571 6.61470405,5.282713 7.55530697,7.33266387 L7.82562534,7.92074852 C9.54580345,11.6566672 11.386643,15.5382041 11.386643,15.5382041 L11.5605272,15.5836133 L14.618185,9.48461326 C14.2443617,8.65874915 14.0059807,8.12985319 14.0059807,8.12985319 L11.9038653,3.99872017 C11.9038653,3.99872017 11.7860136,3.75916335 11.6556135,3.49515187 L11.5432249,3.26788437 C11.4695252,3.1190694 11.4015523,2.98233707 11.3589545,2.89782306 C10.4352641,1.06705554 10.4551999,0.969591809 9.5215417,0.846654607 C9.2601617,0.812320793 9.12504153,0.779094523 9.12504153,0.649512066 L9.12504153,0.07026741 L9.20367704,0.0137827494 L9.92173007,0.0130515984 C9.98774619,0.0129986008 10.0550701,0.0129474959 10.1235241,0.0128982162 L11.8924713,0.0120313264 C11.9676403,0.0120069231 12.0425186,0.0119838043 12.1169285,0.0119619022 L14.6439251,0.0115676647 L14.7879056,0.0591919863 L14.7879056,0.636221558 C14.7879056,0.768019099 14.6937645,0.835579183 14.5021597,0.835579183 L14.1078746,0.892063844 C13.1110865,0.969591809 13.2738952,1.3771674 13.9362056,2.69625035 L15.952,6.822 L18.1836305,2.37395553 C18.5319895,1.61418146 18.4886428,1.38600805 18.3561492,1.2058813 L18.3265035,1.16784189 C18.2379001,1.06151783 17.9410787,0.892063844 17.2953815,0.865482827 L17.0417543,0.837794268 C16.9775169,0.837794268 16.9177096,0.815643421 16.8590099,0.772449268 C16.8014177,0.731470201 16.7726216,0.678308168 16.7726216,0.610748083 L16.7726216,0.061407071 L16.8512571,0.0049224105 C17.1569388,0.00277878012 17.5363475,0.00146494215 17.9494927,0.000739989106 Z M40.6103843,17.3966601 C40.6103843,18.0301744 40.9655565,18.3469315 41.7578613,18.490912 L42.0583907,18.5496117 C42.1403544,18.5773003 42.222317,18.6060964 42.222317,18.7212808 L42.222317,19.3259989 L42.1949961,19.3846987 C42.1949961,19.3846987 40.47378,19.3259989 39.6541533,19.3259989 C38.8891693,19.3259989 36.6488559,19.3846987 36.6488559,19.3846987 L36.5942131,19.3259989 L36.5942131,18.7212808 C36.5942131,18.6060964 36.6761768,18.5496117 36.7854602,18.5496117 L37.3318773,18.490912 C38.151504,18.4045237 38.5066763,17.9437861 38.5066763,17.3966601 L38.5066763,7.80755836 C38.5066763,7.17515167 38.2061469,7.00015998 37.3318773,6.91598676 L36.7854602,6.85617947 C36.6761768,6.85617947 36.5942131,6.82959845 36.5942131,6.74099507 L36.5942131,6.07757719 L36.6215339,6.01998499 C36.6215339,6.01998499 38.8618474,6.07757719 39.7087961,6.07757719 C40.4748311,6.07757719 42.1949961,6.01998499 42.1949961,6.01998499 L42.222317,6.07757719 L42.222317,6.71109142 C42.222317,6.79747973 42.1676753,6.82627583 42.0583907,6.85507193 L41.7578613,6.91377167 C40.9109137,7.08544074 40.6103843,7.23052879 40.6103843,7.80755836 L40.6103843,12.1557697 C41.5119736,12.1557697 42.031071,11.6673435 43.2331897,10.3128192 C44.326025,9.04468318 45.1729738,7.98144251 45.1729738,7.43320904 C45.1729738,7.20173269 44.9270849,6.94367532 44.3806678,6.85617947 C44.2713833,6.82849091 44.2167416,6.79858727 44.2167416,6.71219896 L44.2167416,6.04878109 L44.2440636,6.02109253 C44.2440636,6.02109253 46.457055,6.07868473 47.2493609,6.07868473 C47.9597043,6.07868473 49.161823,6.02109253 49.161823,6.02109253 L49.2437856,6.04878109 L49.2437856,6.71219896 C49.2437856,6.79858727 49.161823,6.85617947 49.0252187,6.85617947 C47.9597043,6.94256778 47.2220401,7.00015998 46.2384882,8.18080014 L43.8888914,11.0305066 C43.4244368,11.549944 43.2605106,11.8655936 43.2605106,12.0970699 C43.2605106,12.2698465 43.369794,12.4127195 43.5063994,12.5854961 L47.631854,17.8263866 C47.9597043,18.2284245 48.6154048,18.4023086 49.161823,18.5163855 L49.2984273,18.544074 C49.380391,18.5728701 49.4896744,18.6304623 49.4896744,18.7168506 L49.4896744,19.3215688 L49.4077107,19.3503649 C49.4077107,19.3503649 47.9597043,19.3215688 47.1947181,19.3215688 C46.5116968,19.3215688 45.5281449,19.3503649 45.5281449,19.3503649 L45.500824,19.3215688 L45.500824,18.9760156 C45.500824,18.6005587 45.4735032,18.2860167 45.0910101,17.825279 L42.0583907,13.8503095 C41.6485779,13.2732799 41.2114442,13.1315145 40.6103843,13.1315145 L40.6103843,17.3966601 L40.6103843,17.3966601 L40.6103843,17.3966601 Z M55.3394961,17.3966601 C55.3394961,18.0301744 55.6127057,18.4045237 56.4869742,18.490912 L57.0607121,18.5496117 C57.1426758,18.5496117 57.2246384,18.6060964 57.2246384,18.7212808 L57.2246384,19.3259989 L57.1973175,19.3846987 C57.1973175,19.3846987 55.1209292,19.3259989 54.2739816,19.3259989 C53.5089977,19.3259989 51.3779677,19.3846987 51.3779677,19.3846987 L51.3233248,19.3259989 L51.3233248,18.7212808 C51.3233248,18.6060964 51.4052885,18.5496117 51.5145719,18.5496117 L52.060989,18.490912 C52.9625784,18.4045237 53.235788,17.9437861 53.235788,17.3966601 L53.235788,7.80755836 C53.235788,7.17515167 52.9079378,7.00015998 52.060989,6.91598676 L51.5145719,6.85617947 C51.4052885,6.85617947 51.3233248,6.82959845 51.3233248,6.74099507 L51.3233248,6.07757719 L51.3506468,6.01998499 C51.3506468,6.01998499 53.5089977,6.07757719 54.3559442,6.07757719 C55.0936084,6.07757719 57.1973175,6.01998499 57.1973175,6.01998499 L57.2246384,6.07757719 L57.2246384,6.71109142 C57.2246384,6.79747973 57.1699956,6.85507193 57.0607121,6.85507193 L56.4869742,6.91377167 C55.6400255,6.99905244 55.3394961,7.23052879 55.3394961,7.80755836 L55.3394961,17.3966601 L55.3394961,17.3966601 Z M61.2429095,7.86404302 C61.2429095,6.97136388 60.8877384,6.94256778 59.603656,6.85617947 C59.439732,6.85617947 59.4124111,6.77089871 59.4124111,6.71219896 L59.4124111,6.04988863 L59.4670528,6.02109253 C59.8768657,6.02109253 61.4887983,6.07868473 62.2811031,6.07868473 C63.0460893,6.07868473 64.1389257,6.02109253 65.1497973,6.02109253 C69.0272622,6.02109253 69.7376055,8.03571209 69.7376055,9.53532445 C69.7376055,11.2641981 68.9452996,13.9699241 65.0678359,13.9699241 C64.3848123,13.9699241 63.8383952,13.9112243 63.3455687,13.6819631 L63.3455687,17.5384256 C63.3455687,18.1719398 63.673419,18.3170278 64.5487385,18.4599008 L65.0962067,18.5462891 C65.2054901,18.5750852 65.2874527,18.6049889 65.2874527,18.7190657 L65.2874527,19.3237839 L65.2611829,19.3813761 C65.2611829,19.3813761 63.0755122,19.3237839 62.2285635,19.3237839 C61.4635796,19.3237839 59.4145121,19.3813761 59.4145121,19.3813761 L59.3871913,19.3237839 L59.3871913,18.7190657 C59.3871913,18.6038813 59.441833,18.5750852 59.5511164,18.5462891 L60.1248555,18.4599008 C60.9718031,18.3447164 61.2450116,18.0855515 61.2450116,17.5384256 L61.2429095,7.86404302 L61.2429095,7.86404302 L61.2429095,7.86404302 Z M63.3466187,12.8756722 C63.8930369,13.1071486 64.5760594,13.1348371 65.1224765,13.1348371 C66.762781,13.1348371 67.5519338,12.0959624 67.5519338,9.88087767 C67.5519338,7.40441294 66.4864193,6.85728701 64.9858722,6.85728701 C63.673419,6.85728701 63.3455687,7.11645193 63.3455687,7.86515056 L63.3466187,12.8756722 L63.3466187,12.8756722 L63.3466187,12.8756722 Z M78.1503378,18.5385363 L78.7787186,18.4798366 C79.5993953,18.3934483 79.8726049,18.1342834 79.8726049,17.2427118 L79.8726049,7.73999828 C79.8726049,6.98908455 79.6792568,6.98908455 78.7787186,6.90491134 L78.1797608,6.84510405 C78.0704774,6.84510405 77.9864116,6.78751184 77.9864116,6.70112354 L77.9864116,6.06760931 L78.0126825,6.01001711 C78.0126825,6.01001711 80.4179721,6.06760931 80.9107985,6.06760931 C81.4277938,6.06760931 83.8068125,6.01001711 84.5171558,6.01001711 C89.0797453,6.01001711 91.3211086,9.00481166 91.3211086,12.8346931 C91.3211086,17.8751184 87.9322682,19.3703006 84.9006989,19.3703006 C82.7150282,19.3703006 81.7598483,19.3127084 80.9129007,19.3127084 C80.0922217,19.3127084 78.0158345,19.3703006 78.0158345,19.3703006 L77.9885137,19.3127084 L77.9885137,18.7079903 C77.9864116,18.6249246 78.0421054,18.5385363 78.1503378,18.5385363 L78.1503378,18.5385363 Z M84.2439473,18.5385363 C87.2481947,18.5385363 88.9441909,17.3590037 88.9441909,13.3253344 C88.9441909,10.3316474 88.3147591,6.84510405 83.724851,6.84510405 C82.6593355,6.84510405 81.9763141,7.01788066 81.9763141,7.73999828 L81.9763141,17.2427118 C81.9763141,18.0467875 82.166509,18.5385363 84.2439473,18.5385363 Z M74.6532639,17.3833696 C74.6532639,18.0168839 74.9264736,18.3912332 75.8007409,18.4776215 L76.37448,18.5363212 C76.4564437,18.5363212 76.5384051,18.5928059 76.5384051,18.7079903 L76.5384051,19.3127084 L76.5110843,19.3714082 C76.5110843,19.3714082 74.4346971,19.3127084 73.5888005,19.3127084 C72.8227644,19.3127084 70.6927866,19.3714082 70.6927866,19.3714082 L70.6370938,19.3127084 L70.6370938,18.7079903 C70.6370938,18.5928059 70.7190564,18.5363212 70.8283398,18.5363212 L71.375808,18.4776215 C72.2763462,18.3912332 72.5506069,17.9304956 72.5506069,17.3833696 L72.5506069,7.79426785 C72.5506069,7.16186116 72.2217045,6.98686947 71.375808,6.90269625 L70.8283398,6.84288896 C70.7190564,6.84288896 70.6370938,6.81630795 70.6370938,6.72770456 L70.6370938,6.06428668 L70.6644136,6.00669448 C70.6644136,6.00669448 72.8227644,6.06428668 73.6676099,6.06428668 C74.4052741,6.06428668 76.5100343,6.00669448 76.5100343,6.00669448 L76.5363041,6.06428668 L76.5363041,6.69780091 C76.5363041,6.78418922 76.4806114,6.84178142 76.3723779,6.84178142 L75.7986399,6.90048117 C74.9516912,6.98576193 74.6511629,7.21723828 74.6511629,7.79426785 L74.6532639,17.3833696 L74.6532639,17.3833696 L74.6532639,17.3833696 Z M105.661757,18.5496117 L106.496844,18.6083115 C106.612028,18.6083115 106.727212,18.6946998 106.727212,18.8375728 L106.727212,19.3846987 L106.66962,19.4433984 C106.66962,19.4433984 103.530845,19.3846987 102.839739,19.3846987 C102.089932,19.3846987 100.246982,19.4433984 100.246982,19.4433984 L100.188282,19.3846987 L100.188282,18.8375728 C100.188282,18.6946998 100.274671,18.6083115 100.419759,18.6083115 C101.687895,18.5219232 102.405582,18.2904468 103.211873,16.4474963 L109.6035,1.47241604 C109.919149,0.723717404 110.150626,0.434648848 110.583675,0.434648848 C110.985713,0.434648848 111.130801,0.723717404 111.360062,1.29963943 L117.263263,16.9071264 C117.667516,18.0312819 118.243438,18.4621159 119.395282,18.5773003 L119.712039,18.6049889 C119.856019,18.6049889 120,18.6913772 120,18.8364652 L120,19.3824836 L119.913612,19.4400758 C119.913612,19.4400758 117.696312,19.3824836 116.573264,19.3824836 C115.5654,19.3824836 112.742275,19.4400758 112.742275,19.4400758 L112.714586,19.3824836 L112.714586,18.8364652 C112.714586,18.6913772 112.772179,18.6049889 112.918374,18.6049889 L113.724665,18.5473967 C114.817809,18.4621159 115.22317,18.1143476 114.934101,17.3091643 L113.177539,12.4415156 L107.18795,12.4415156 C106.496844,12.4415156 106.324067,12.5567 106.181194,12.9299418 L104.509913,17.106484 C104.221951,17.8286017 104.596301,18.4632234 105.661757,18.5496117 L105.661757,18.5496117 Z M112.716801,11.2331869 L109.92358,3.54573535 L109.865987,3.54573535 L106.986377,10.8599451 C106.871193,11.1490137 107.071658,11.2342944 107.705172,11.2342944 L112.716801,11.2342944 L112.716801,11.2331869 Z M96.4324565,16.9301301 L96.4324565,8.73717404 C96.4134899,7.92163522 96.5588659,7.40745868 96.8685868,7.19461119 C97.1782966,6.98178585 97.7661236,6.87622599 98.63207,6.8779316 C98.7079112,6.80385917 98.7458434,6.691499 98.7458434,6.54080678 C98.7458434,6.39013672 98.7079112,6.27776547 98.63207,6.20369304 C98.0337014,6.21433652 97.4922251,6.22370633 97.0076431,6.23178031 C96.5230491,6.23988752 95.9689323,6.24415156 95.3452896,6.2445392 C94.7353372,6.24415156 94.1917543,6.23988752 93.714542,6.23178031 C93.2373253,6.22370633 92.6937435,6.21433652 92.0837944,6.20369304 C92.0079444,6.27776547 91.970021,6.39013672 91.970021,6.54080678 C91.970021,6.691499 92.0079455,6.80385917 92.0837944,6.8779316 C92.949732,6.87622599 93.5375612,6.98178585 93.8472777,7.19461119 C94.1569908,7.40745868 94.3023668,7.92163522 94.283409,8.73717404 L94.283409,16.9301301 C94.3023668,17.745691 94.1569908,18.2598565 93.8472777,18.4726929 C93.537559,18.6855183 92.949732,18.7910781 92.0837944,18.7893725 C92.0079444,18.8634449 91.970021,18.9758162 91.970021,19.1264973 C91.970021,19.2771785 92.0079455,19.3895497 92.0837944,19.4636222 C92.6821553,19.4529676 93.2236305,19.4436089 93.7082224,19.4355238 C94.1928087,19.4274277 94.7469255,19.4231747 95.3705737,19.4227538 C95.9805194,19.4231747 96.5241012,19.4274277 97.0013213,19.4355238 C97.4785303,19.4436089 98.0221132,19.4529787 98.63207,19.4636222 C98.7079112,19.3895497 98.7458434,19.2771785 98.7458434,19.1264973 C98.7458434,18.9758162 98.7079112,18.8634449 98.63207,18.7893725 C97.7661236,18.7910781 97.1782966,18.6855183 96.8685857,18.4726929 C96.5588659,18.2598565 96.4134888,17.745691 96.4324565,16.9301301 L96.4324565,16.9301301 Z" id="wikipedia-wordmark-ak" fill="#000000" fill-rule="nonzero"></path>
    </g>
</svg>

<svg xmlns="http://www.w3.org/2000/svg" width="120" height="20"><path fill="#000" fill-rule="nonzero" d="m34.405 6.02.028.058v.633c0 .086-.055.144-.164.144l-.574.059c-.847.085-1.147.317-1.147.894v9.589c0 .633.273 1.008 1.147 1.094l.574.059c.082 0 .164.056.164.171v.605l-.028.059s-2.076-.059-2.923-.059c-.765 0-2.896.059-2.896.059l-.055-.059v-.605c0-.115.082-.171.192-.171l.546-.06c.902-.085 1.175-.546 1.175-1.093v-9.59c0-.632-.329-.807-1.175-.891l-.546-.06c-.11 0-.192-.026-.192-.115v-.663l.028-.058s1.974.053 2.887.057h.118c.738 0 2.841-.057 2.841-.057ZM20.111 0l.205.001h.387l.182.001h.331l.148.001h.255l.105.001h.254l.063.06v.549c0 .152-.085.227-.253.227-.827.039-.996.12-1.298.556-.165.238-.491.749-.829 1.321l-2.9 5.423-.08.17 3.543 7.25.215.06L26.02 2.371c.193-.534.164-.913-.086-1.135-.25-.218-.426-.346-1.073-.373l-.524-.026a.307.307 0 0 1-.184-.067.19.19 0 0 1-.087-.16V.059l.08-.056h6.306l.064.056v.552c0 .15-.085.225-.253.225-.827.036-1.44.216-1.836.536-.397.322-.707.766-.93 1.343 0 0-1.527 3.496-3.2 7.308l-.28.637-.282.64a1102.58 1102.58 0 0 1-3.128 7.07c-.672 1.28-1.333 1.163-1.915-.036a274.972 274.972 0 0 1-2.157-4.633l-.237-.52c-.333-.727-.659-1.444-.956-2.099-.373.77-.79 1.625-1.21 2.483l-.25.51-.126.255-.249.504c-.7 1.417-1.358 2.722-1.786 3.515-.784 1.364-1.43 1.185-1.944.036C7.994 14.175 4.33 6.783 2.606 2.64c-.319-.763-.56-1.253-.786-1.447C1.592 1.003 1.118.888.397.85.132.82 0 .756 0 .652V.075L.064.018l.37-.001h.328L.948.015h3.608l1.125.001H6.634l.1.001h.186l.064.057v.549c0 .152-.096.225-.286.225l-.715.03c-.614.025-.92.21-.92.55 0 .157.064.414.207.761.472 1.152 1.345 3.093 2.285 5.143l.27.588a856.325 856.325 0 0 0 3.562 7.617l.174.046 3.057-6.1c-.374-.825-.612-1.354-.612-1.354l-2.102-4.131-.248-.504-.113-.227a68.273 68.273 0 0 0-.184-.37C10.435 1.068 10.455.97 9.522.847 9.26.812 9.125.779 9.125.65V.07l.079-.056h.718l.202-.001 1.768-.001H14.644l.144.047v.577c0 .132-.094.2-.286.2l-.394.056c-.997.078-.834.485-.172 1.804l2.016 4.126 2.232-4.448c.348-.76.305-.988.172-1.168l-.03-.038c-.088-.106-.385-.276-1.03-.303l-.254-.027a.303.303 0 0 1-.183-.066.189.189 0 0 1-.086-.161V.06l.078-.056C17.157.003 17.536 0 17.95 0Zm20.5 17.397c0 .633.355.95 1.147 1.094l.3.059c.082.027.164.056.164.171v.605l-.027.059s-1.721-.059-2.54-.059c-.766 0-3.006.059-3.006.059l-.055-.059v-.605c0-.115.082-.171.191-.171l.547-.06c.82-.085 1.175-.546 1.175-1.093v-9.59c0-.632-.3-.807-1.175-.891l-.547-.06c-.109 0-.19-.026-.19-.115v-.663l.027-.058s2.24.058 3.087.058c.766 0 2.486-.058 2.486-.058l.027.058v.633c0 .086-.054.115-.164.144l-.3.059c-.847.171-1.148.317-1.148.894v4.348c.902 0 1.421-.489 2.623-1.843 1.093-1.268 1.94-2.332 1.94-2.88 0-.231-.246-.49-.792-.577-.11-.028-.164-.057-.164-.144V6.05l.027-.028s2.213.058 3.005.058c.71 0 1.913-.058 1.913-.058l.082.028v.663c0 .087-.082.144-.219.144-1.065.087-1.803.144-2.787 1.325l-2.35 2.85c-.464.519-.627.835-.627 1.066 0 .173.109.316.245.488l4.126 5.241c.328.402.983.576 1.53.69l.136.028c.082.029.192.086.192.173v.605l-.082.028s-1.448-.028-2.213-.028c-.683 0-1.667.028-1.667.028l-.027-.028v-.346c0-.375-.027-.69-.41-1.15l-3.033-3.976c-.41-.577-.847-.718-1.448-.718v4.265Zm14.728 0c0 .633.274 1.008 1.148 1.094l.574.059c.082 0 .164.056.164.171v.605l-.028.059s-2.076-.059-2.923-.059c-.765 0-2.896.059-2.896.059l-.055-.059v-.605c0-.115.082-.171.192-.171l.546-.06c.902-.085 1.175-.546 1.175-1.093v-9.59c0-.632-.328-.807-1.175-.891l-.546-.06c-.11 0-.192-.026-.192-.115v-.663l.028-.058s2.158.058 3.005.058c.738 0 2.841-.058 2.841-.058l.028.058v.633c0 .086-.055.144-.164.144l-.574.059c-.847.085-1.148.317-1.148.894v9.589Zm5.904-9.533c0-.893-.355-.921-1.64-1.008-.163 0-.19-.085-.19-.144V6.05l.054-.029c.41 0 2.022.058 2.814.058.765 0 1.858-.058 2.869-.058 3.877 0 4.588 2.015 4.588 3.514 0 1.73-.793 4.435-4.67 4.435-.683 0-1.23-.059-1.722-.288v3.856c0 .634.327.779 1.203.922l.547.086c.11.03.191.059.191.173v.605l-.026.057s-2.185-.057-3.032-.057c-.765 0-2.814.057-2.814.057l-.028-.057v-.605c0-.115.055-.144.164-.173l.574-.086c.847-.115 1.12-.374 1.12-.922l-.002-9.674Zm2.104 5.012c.546.231 1.23.259 1.775.259 1.64 0 2.43-1.039 2.43-3.254 0-2.477-1.066-3.024-2.566-3.024-1.313 0-1.64.26-1.64 1.008v5.01Zm14.803 5.663.629-.06c.82-.086 1.094-.345 1.094-1.236V7.74c0-.75-.194-.75-1.094-.835l-.6-.06c-.109 0-.193-.057-.193-.144v-.633l.027-.058s2.405.058 2.898.058c.517 0 2.896-.058 3.606-.058 4.563 0 6.804 2.995 6.804 6.825 0 5.04-3.389 6.535-6.42 6.535-2.186 0-3.141-.057-3.988-.057-.82 0-2.897.057-2.897.057l-.027-.057v-.605c-.003-.083.053-.17.161-.17Zm6.094 0c3.004 0 4.7-1.18 4.7-5.214 0-2.993-.63-6.48-5.22-6.48-1.065 0-1.748.173-1.748.895v9.503c0 .804.19 1.296 2.268 1.296Zm-9.59-1.156c0 .634.272 1.008 1.147 1.095l.573.058c.082 0 .164.057.164.172v.605l-.027.058s-2.076-.058-2.922-.058c-.766 0-2.896.058-2.896.058l-.056-.058v-.605c0-.115.082-.172.191-.172l.548-.058c.9-.087 1.175-.548 1.175-1.095V7.794c0-.632-.33-.807-1.175-.891l-.548-.06c-.109 0-.19-.027-.19-.115v-.664l.026-.057s2.159.057 3.004.057c.737 0 2.842-.057 2.842-.057l.026.057v.634c0 .086-.055.144-.164.144L75.8 6.9c-.847.086-1.148.317-1.148.894l.002 9.59Zm31.008 1.167.835.058c.115 0 .23.087.23.23v.547l-.057.058s-3.14-.058-3.83-.058c-.75 0-2.593.058-2.593.058l-.059-.058v-.547c0-.143.087-.23.232-.23 1.268-.086 1.986-.318 2.792-2.16l6.391-14.976c.316-.748.548-1.037.98-1.037.403 0 .548.289.777.865l5.903 15.607c.405 1.124.98 1.555 2.132 1.67l.317.028c.144 0 .288.086.288.231v.546l-.086.058s-2.218-.058-3.34-.058c-1.009 0-3.832.058-3.832.058l-.027-.058v-.546c0-.145.057-.231.203-.231l.807-.058c1.093-.085 1.498-.433 1.21-1.238l-1.757-4.867h-5.99c-.691 0-.864.115-1.007.488l-1.671 4.176c-.288.723.086 1.357 1.152 1.444Zm7.055-7.317-2.793-7.687h-.058l-2.88 7.314c-.115.289.086.374.72.374h5.01ZM96.432 16.93V8.737c-.019-.815.127-1.33.437-1.542.31-.213.897-.319 1.763-.317.076-.074.114-.187.114-.337 0-.15-.038-.263-.114-.337l-1.624.028a104.431 104.431 0 0 1-3.293 0l-1.631-.028c-.076.074-.114.186-.114.337 0 .15.038.263.114.337.866-.002 1.454.104 1.763.317.31.212.455.727.436 1.542v8.193c.02.816-.126 1.33-.436 1.543-.31.213-.897.318-1.763.316-.076.074-.114.187-.114.337 0 .151.038.264.114.338l1.624-.028a104.948 104.948 0 0 1 3.293 0 3259 3259 0 0 1 1.631.028c.076-.074.114-.187.114-.338 0-.15-.038-.263-.114-.337-.866.002-1.454-.103-1.763-.316-.31-.213-.456-.727-.437-1.543Z"/></svg>
